X: 1
T: Reel boule de neige
O: Quebec
R: reel
Z: 2008 John Chambers <jc:trillian.mit.edu>
S: printed page from Debby Knight
M: 2/4
L: 1/16
K: G
Bc \
| "G"d2B2 g2B2 | "D7"d2c2 cBAB | c2A2 d2A2 | "G"c2B2 BAGB |
| "G"d2B2 g2B2 | "C"f2e2 "Am"edef | "D7"e2c2 a2f2 | "G"g2a2 g2 :|[K:D]
|: d2 \
| "D"ABAG F2A2 | fefg f2d2 | "A7"efed c2e2 | a^gab a4 |
| "D"ABAG F2A2 | fefg f2ed | "A7"c2e2 a2c2 | "D"e2d2 d2 :|
